X: 1
T:Cape Cod -- Reel
M:2/4
L:1/16
R:reel
B:Ryan's Mammoth Collection
Z:Contributed by Ray Davies,  ray:davies99.freeserve.co.uk
K:G
vBGBd cBce|gedB ABGD|BGBd cBce|gedB A2G2|
BGBd cBce|gedB ABGD|BGBd cBce|gedB A2G2::
g2z2 B2z2|{a}gdef gfge|dBGB cBce|gedB A2G2|
kg4 kd4|{a}gdef gfge|dgba gfge|1 defa g2G,2:|2 defa g2z2|]
